X: 141
T:Muiñeira dos nenos
M:6/8
L:1/8
Q:200
C:Trad.
R:Muiñeira
K:C
c3 |: BAG FED | E3 {G}EDE | F3 {c}FEF |
G2 E c3 | BAG FED | E3 {G}EDE | FDF {B}AGF |1 E3 c3 :|2
E3 {G}EFG |: {c}G2E {G}EFG | "~"A2F {c}FGA |BcB AGF |
GFE {G} EFG | {c}"~"G2E {G}EFG | "~"A2F {c}FGA | BcB AGF |1
E3 {G}EFG :|2 E3 || 

